X: 5
T: HORNPIPES: Sonny Murray's Set
T: Sonny Murray's
C: C: Trad. / Frank McCollum / Trad.; S: Various
C: Set Leaders: Mars, Tania, Anton
Z: [Unedited]; Jdharv / Jdharv / Bannerman at The Session
N: https://thesession.org/members/26966/sets/94256
R: Hornpipe
M: 4/4
L: 1/8
Q: 1/2=82
K: Dmaj
|:FG|ABAF DEFG|AG (3FED =c2 (3AB^c|dcde fdAF|G2GF G2FG|
ABAF DEFG|AG (3FED =c2 (3AB^c|dcde fdAG|F2D2 D2:||
|:de|f2fd ecAF|Gggf g2fg|a2ab agec|dcAF G2FG|
ABAF DEFG|AG (3FED =c2 (3AB^c|dcde fdAG|F2D2 D2:||
T: Home Ruler
K: Dmaj
|:AF|D2FA DAFA|dfed B2dB|A2AB AFDE|(3FED ED B,DA,B,|
D2FA DAFA|dfed B2dB|A2AB AFDE|F2D2 D2:||
|:dB|Addc d3 f|afbf afed|efed BAFA|fded BdA2|
Addc d3 f|afbf afed|efed BAdB|AFEF D2:||
T: Kitty's Wedding
K: Dmaj
|:fe|d2Bd A2FA|BAFA D2 ED|B,DA,D DFBF|AFDF E2fe|
d2Bd A2FA|BAFA D2 ED|B,DA,D DFBF|AFEF D2:||
|:fg|afed bafd|Adfd edBd|DFAd FAde|fdgf e2fg|
afed bafd|Adfd edBd|DFAd FAdf|eABc d2:||

